material/.icons/material/mailbox-open-outline.svg

<svg xmlns="http://www.w3.org/2000/svg" viewBox="0 0 24 24"><path d="M14 11h6v4h-2v-2h-4v-2m4-7H8a5 5 0 00-5 5v9H1v2h20a2 2 0 002-2V9a5 5 0 00-5-5m-7 14H5V9a3 3 0 013-3 3 3 0 013 3v9m10 0h-8V9c0-1.08-.35-2.14-1-3h6a3 3 0 013 3v9z"/></svg>

<?xml version="1.0" encoding="UTF-8"?><!DOCTYPE svg PUBLIC "-//W3C//DTD SVG 1.1//EN" "http://www.w3.org/Graphics/SVG/1.1/DTD/svg11.dtd"><svg xmlns="http://www.w3.org/2000/svg" xmlns:xlink="http://www.w3.org/1999/xlink" version="1.1" id="mdi-mailbox-open-outline" width="24" height="24" viewBox="0 0 24 24"><path d="M14,11H20V15H18V13H14V11M18,4H8A5,5 0 0,0 3,9V18H1V20H21A2,2 0 0,0 23,18V9A5,5 0 0,0 18,4M11,18H5V9A3,3 0 0,1 8,6A3,3 0 0,1 11,9V18M21,18H13V9C13,7.92 12.65,6.86 12,6H18A3,3 0 0,1 21,9V18Z" /></svg>
